src/icons/rocket.svg

<?xml version="1.0" encoding="UTF-8"?>
<svg xmlns="http://www.w3.org/2000/svg" xmlns:xlink="http://www.w3.org/1999/xlink" width="32" height="32" viewBox="0 0 32 32" version="1.1">
<g id="surface1">
<path style=" stroke:none;fill-rule:nonzero;fill:rgb(0%,0%,0%);fill-opacity:1;" d="M 31.378906 0.621094 L 30.699219 0.640625 C 30.503906 0.640625 25.921875 0.738281 21.460938 2.960938 C 19.847656 3.765625 18.421875 4.796875 17.21875 6 C 13.558594 9.660156 6.382812 18.773438 6.078125 19.160156 L 6 19.238281 L 5.960938 19.359375 C 5.859375 19.695312 5.71875 20.996094 8.359375 23.640625 C 10.378906 25.660156 11.632812 26.078125 12.320312 26.078125 C 12.476562 26.078125 12.578125 26.058594 12.640625 26.039062 L 12.761719 26 L 12.859375 25.921875 C 13.25 25.613281 22.445312 18.335938 26 14.78125 C 27.199219 13.578125 28.21875 12.152344 29.019531 10.539062 C 31.230469 6.085938 31.355469 1.496094 31.359375 1.300781 Z M 21.761719 7.679688 C 23.175781 7.679688 24.320312 8.824219 24.320312 10.238281 C 24.320312 11.65625 23.175781 12.800781 21.761719 12.800781 C 20.34375 12.800781 19.199219 11.65625 19.199219 10.238281 C 19.199219 8.824219 20.34375 7.679688 21.761719 7.679688 Z M 5.761719 12.800781 C 5.570312 12.800781 5.382812 12.875 5.261719 13.019531 L 2.058594 16.859375 C 1.921875 17.03125 1.890625 17.269531 1.960938 17.480469 C 2.027344 17.691406 2.183594 17.847656 2.398438 17.898438 L 4.921875 18.539062 L 5 18.460938 L 5.058594 18.359375 C 5.214844 18.164062 7.171875 15.675781 9.539062 12.800781 Z M 5.121094 21.5 L 4.578125 22.398438 C 4.21875 23.039062 4.816406 24.136719 6.339844 25.660156 C 7.585938 26.90625 8.515625 27.519531 9.179688 27.519531 C 9.378906 27.519531 9.511719 27.472656 9.601562 27.421875 L 10.5 26.878906 C 9.578125 26.425781 8.574219 25.65625 7.460938 24.539062 C 6.261719 23.339844 5.535156 22.339844 5.121094 21.5 Z M 19.199219 22.441406 C 16.328125 24.808594 13.839844 26.78125 13.640625 26.941406 L 13.558594 27 L 13.460938 27.078125 L 14.101562 29.601562 C 14.152344 29.816406 14.308594 29.972656 14.519531 30.039062 C 14.585938 30.058594 14.652344 30.078125 14.71875 30.078125 C 14.867188 30.078125 15.003906 30.039062 15.121094 29.941406 L 18.960938 26.738281 C 19.105469 26.617188 19.199219 26.429688 19.199219 26.238281 Z M 4.101562 24.460938 C 3.054688 25.261719 2.109375 25.363281 1.261719 26.199219 C 0.835938 26.617188 0.496094 27.210938 0.300781 28.019531 C 0.101562 28.828125 0.0195312 29.875 0.0195312 31.339844 L 0.0195312 31.980469 L 0.660156 31.980469 C 3.601562 31.980469 5.039062 31.515625 5.898438 30.640625 C 6.761719 29.765625 6.90625 28.789062 7.558594 27.898438 L 6.519531 27.140625 C 5.691406 28.269531 5.503906 29.207031 4.980469 29.738281 C 4.515625 30.210938 3.488281 30.554688 1.359375 30.640625 C 1.390625 29.710938 1.4375 28.816406 1.558594 28.320312 C 1.71875 27.671875 1.914062 27.359375 2.160156 27.121094 C 2.648438 26.640625 3.601562 26.425781 4.859375 25.460938 Z M 4.101562 24.460938 "/>
</g>
</svg>

<svg role="img" viewBox="0 0 32 32" xmlns="http://www.w3.org/2000/svg"><path d="m31.379.621-.68.02c-.195 0-4.777.097-9.238 2.32A16.232 16.232 0 0 0 17.219 6c-3.66 3.66-10.836 12.773-11.14 13.16L6 19.238l-.04.121c-.1.336-.241 1.637 2.4 4.282 2.019 2.02 3.273 2.437 3.96 2.437.157 0 .258-.02.32-.039l.122-.039.097-.078c.391-.309 9.586-7.586 13.141-11.14a16.17 16.17 0 0 0 3.02-4.243c2.21-4.453 2.335-9.043 2.34-9.238ZM21.762 7.68a2.557 2.557 0 0 1 2.558 2.558 2.558 2.558 0 0 1-2.558 2.563 2.559 2.559 0 0 1-2.563-2.563 2.558 2.558 0 0 1 2.563-2.558m-16 5.12a.648.648 0 0 0-.5.22l-3.203 3.84a.665.665 0 0 0-.098.62.6.6 0 0 0 .437.418l2.524.641.078-.078.059-.102c.156-.195 2.113-2.683 4.48-5.558Zm-.64 8.7-.544.898c-.36.641.238 1.739 1.762 3.262 1.246 1.246 2.176 1.86 2.84 1.86a.834.834 0 0 0 .422-.098l.898-.543c-.922-.453-1.926-1.223-3.04-2.34-1.198-1.2-1.925-2.2-2.339-3.039m14.077.941c-2.87 2.368-5.36 4.34-5.558 4.5l-.082.059-.098.078.64 2.524a.6.6 0 0 0 .419.437.606.606 0 0 0 .602-.098l3.839-3.203a.666.666 0 0 0 .238-.5Zm-15.097 2.02c-1.047.8-1.993.902-2.84 1.738-.426.418-.766 1.012-.961 1.82-.2.81-.281 1.856-.281 3.32v.641h.64c2.942 0 4.38-.464 5.238-1.34.864-.874 1.008-1.85 1.66-2.742l-1.038-.757c-.829 1.129-1.016 2.066-1.54 2.597-.464.473-1.492.817-3.62.903.03-.93.077-1.825.199-2.32.16-.65.355-.962.601-1.2.488-.48 1.442-.695 2.7-1.66Zm0 0" style="stroke:none;fill-rule:nonzero;fill:rgb(0%,0%,0%);fill-opacity:1"/></svg>
